svg/archive.svg

<svg xmlns="http://www.w3.org/2000/svg" viewBox="0 0 32 32" enable-background="new 0 0 32 32"><path d="M 6 3 L 6 4 L 6 28 L 6 29 L 7 29 L 25 29 L 26 29 L 26 28 L 26 4 L 26 3 L 25 3 L 7 3 L 6 3 z M 8 5 L 15 5 L 15 6 L 17 6 L 17 5 L 24 5 L 24 27 L 8 27 L 8 5 z M 15 7 L 15 9 L 17 9 L 17 7 L 15 7 z M 15 10 L 15 12 L 17 12 L 17 10 L 15 10 z M 15 13 L 15 15.1875 C 13.844255 15.605718 13 16.707982 13 18 C 13 19.64501 14.35499 21 16 21 C 17.64501 21 19 19.64501 19 18 C 19 16.707982 18.155745 15.605718 17 15.1875 L 17 13 L 15 13 z M 16 17 C 16.564128 17 17 17.435872 17 18 C 17 18.564128 16.564128 19 16 19 C 15.435872 19 15 18.564128 15 18 C 15 17.435872 15.435872 17 16 17 z" color="#000" overflow="visible" enable-background="accumulate"/></svg>

<svg xmlns="http://www.w3.org/2000/svg" viewBox="0 0 32 32"><path style="text-indent:0;text-align:start;line-height:normal;text-transform:none;block-progression:tb;-inkscape-font-specification:Bitstream Vera Sans" d="M6 3v26h20V3H6zm2 2h7v1h2V5h7v22H8V5zm7 2v2h2V7h-2zm0 3v2h2v-2h-2zm0 3v2.188c-1.156.418-2 1.52-2 2.812 0 1.645 1.355 3 3 3s3-1.355 3-3c0-1.292-.844-2.394-2-2.813V13h-2zm1 4c.564 0 1 .436 1 1 0 .564-.436 1-1 1-.564 0-1-.436-1-1 0-.564.436-1 1-1z" color="#000" overflow="visible" font-family="Bitstream Vera Sans"/></svg>
